src/4-icons/health.svg

<svg width="260" height="260" viewBox="0 0 260 260" fill="none" xmlns="http://www.w3.org/2000/svg">
<path fill-rule="evenodd" clip-rule="evenodd" d="M110 68C110 64.134 113.134 61 117 61H145C148.866 61 152 64.134 152 68V109H191C194.866 109 198 112.134 198 116V144C198 147.866 194.866 151 191 151H152V192C152 195.866 148.866 199 145 199H117C113.134 199 110 195.866 110 192V151H72C66.4772 151 62 146.523 62 141V116C62 112.134 65.134 109 69 109H110V68ZM124 75H138V120C138 121.657 139.343 123 141 123H184V137H141C139.343 137 138 138.343 138 140V185H124V140C124 138.343 122.657 137 121 137H76V123H121C122.657 123 124 121.657 124 120V75Z" fill="black"/>
<path fill-rule="evenodd" clip-rule="evenodd" d="M0 130C0 201.797 58.203 260 130 260C201.797 260 260 201.797 260 130C260 58.203 201.797 0 130 0C58.203 0 0 58.203 0 130ZM14 130C14 194.065 65.935 246 130 246C194.065 246 246 194.065 246 130C246 65.935 194.065 14 130 14C65.935 14 14 65.935 14 130Z" fill="black"/>
</svg>

<svg width="260" height="260" viewBox="0 0 260 260" fill="none" xmlns="http://www.w3.org/2000/svg"><path fill-rule="evenodd" clip-rule="evenodd" d="M110 68a7 7 0 0 1 7-7h28a7 7 0 0 1 7 7v41h39a7 7 0 0 1 7 7v28a7 7 0 0 1-7 7h-39v41a7 7 0 0 1-7 7h-28a7 7 0 0 1-7-7v-41H72c-5.523 0-10-4.477-10-10v-25a7 7 0 0 1 7-7h41V68Zm14 7h14v45a3 3 0 0 0 3 3h43v14h-43a3 3 0 0 0-3 3v45h-14v-45a3 3 0 0 0-3-3H76v-14h45a3 3 0 0 0 3-3V75Z" fill="#000"/><path fill-rule="evenodd" clip-rule="evenodd" d="M0 130c0 71.797 58.203 130 130 130s130-58.203 130-130S201.797 0 130 0 0 58.203 0 130Zm14 0c0 64.065 51.935 116 116 116s116-51.935 116-116S194.065 14 130 14 14 65.935 14 130Z" fill="#000"/></svg>
